src/images/trading_app/purchase/trade_types/ic_digit_odd_light.svg

<?xml version="1.0" encoding="UTF-8"?>
<svg width="16px" height="16px" viewBox="0 0 16 16" version="1.1" xmlns="http://www.w3.org/2000/svg" xmlns:xlink="http://www.w3.org/1999/xlink">
    <!-- Generator: Sketch 50.2 (55047) - http://www.bohemiancoding.com/sketch -->
    <title>icons/trade types/light/even-odd/ic-light-digit-odd</title>
    <desc>Created with Sketch.</desc>
    <defs></defs>
    <g id="icons/trade-types/light/even-odd/ic-light-digit-odd" stroke="none" stroke-width="1" fill="none" fill-rule="evenodd">
        <g id="binary/icons/Digit-Odd/DIgit-Odd-Off">
            <rect id="Rectangle-18" x="0" y="0" width="16" height="16"></rect>
            <path d="M4.5,11.5 L11.5,11.5 L11.5,4.5 L4.5,4.5 L4.5,11.5 Z M12.5,3.5 L12.5,12.5 L3.5,12.5 L3.5,3.5 L12.5,3.5 Z" id="Rectangle-5" fill="#2A3052" fill-rule="nonzero"></path>
            <polygon id="1" fill="#2A3052" points="2.04101562 9.5 1.21582031 9.5 1.21582031 6.87304688 0.405273438 7.10986328 0.405273438 6.48486328 1.96533203 5.9453125 2.04101562 5.9453125"></polygon>
            <path d="M7.26000977,7.24194336 L7.76464844,7.24194336 C8.16455278,7.24194336 8.36450195,7.04622592 8.36450195,6.65478516 C8.36450195,6.50244064 8.31689501,6.37813362 8.22167969,6.28186035 C8.12646437,6.18558708 7.99210699,6.13745117 7.81860352,6.13745117 C7.67683848,6.13745117 7.55358939,6.17871052 7.44885254,6.26123047 C7.34411569,6.34375041 7.29174805,6.44636983 7.29174805,6.5690918 L6.22216797,6.5690918 C6.22216797,6.32576376 6.28987563,6.10888767 6.42529297,5.91845703 C6.56071031,5.72802639 6.74849327,5.57938693 6.98864746,5.47253418 C7.22880166,5.36568143 7.49275572,5.31225586 7.78051758,5.31225586 C8.29468031,5.31225586 8.69881038,5.42968633 8.99291992,5.66455078 C9.28702947,5.89941524 9.43408203,6.22208454 9.43408203,6.63256836 C9.43408203,6.83146258 9.37325093,7.01924554 9.25158691,7.19592285 C9.12992289,7.37260017 8.95271926,7.51594997 8.7199707,7.62597656 C8.96541464,7.71484419 9.15795829,7.84973054 9.29760742,8.03063965 C9.43725656,8.21154876 9.50708008,8.4353014 9.50708008,8.7019043 C9.50708008,9.11450402 9.34839026,9.44457884 9.03100586,9.69213867 C8.71362146,9.9396985 8.2967962,10.0634766 7.78051758,10.0634766 C7.47794445,10.0634766 7.19706347,10.0058193 6.93786621,9.89050293 C6.67866895,9.7751866 6.48242254,9.61543885 6.34912109,9.41125488 C6.21581965,9.20707092 6.14916992,8.97485482 6.14916992,8.71459961 L7.22509766,8.71459961 C7.22509766,8.85636464 7.28222599,8.97908477 7.39648438,9.08276367 C7.51074276,9.18644258 7.65144773,9.23828125 7.81860352,9.23828125 C8.00691826,9.23828125 8.15714462,9.18591361 8.26928711,9.08117676 C8.3814296,8.97643991 8.4375,8.84261149 8.4375,8.6796875 C8.4375,8.44693894 8.37931373,8.28190153 8.26293945,8.18457031 C8.14656517,8.0872391 7.98575949,8.03857422 7.78051758,8.03857422 L7.26000977,8.03857422 L7.26000977,7.24194336 Z" id="3" fill="#2A3052"></path>
            <path d="M13.2661133,7.76171875 L13.4833984,5.9453125 L15.5610352,5.9453125 L15.5610352,6.58496094 L14.1523437,6.58496094 L14.0717773,7.29052734 C14.1303714,7.25634749 14.2072749,7.22623711 14.3024902,7.20019531 C14.3977056,7.17415352 14.490885,7.16113281 14.5820312,7.16113281 C14.9352231,7.16113281 15.2066234,7.26570533 15.3962402,7.47485352 C15.5858571,7.6840017 15.6806641,7.97737441 15.6806641,8.35498047 C15.6806641,8.58284619 15.6298019,8.78914296 15.5280762,8.97387695 C15.4263504,9.15861095 15.2835296,9.30061799 15.0996094,9.39990234 C14.9156892,9.49918669 14.6984062,9.54882812 14.4477539,9.54882812 C14.224771,9.54882812 14.015626,9.50284877 13.8203125,9.41088867 C13.624999,9.31892858 13.4720058,9.19279052 13.3613281,9.0324707 C13.2506505,8.87215089 13.1961263,8.69108174 13.1977539,8.48925781 L14.0229492,8.48925781 C14.0310873,8.6194668 14.0725908,8.72281863 14.1474609,8.79931641 C14.2223311,8.87581418 14.3208002,8.9140625 14.4428711,8.9140625 C14.7195652,8.9140625 14.8579102,8.70898643 14.8579102,8.29882812 C14.8579102,7.91959446 14.688641,7.72998047 14.3500977,7.72998047 C14.1580394,7.72998047 14.0148117,7.79182881 13.9204102,7.91552734 L13.2661133,7.76171875 Z" id="5" fill="#2A3052"></path>
        </g>
    </g>
</svg>

<svg width="16" height="16" viewBox="0 0 16 16" xmlns="http://www.w3.org/2000/svg"><title>icons/trade types/light/even-odd/ic-light-digit-odd</title><g fill="none" fill-rule="evenodd"><path d="M0 0h16v16H0z"/><path d="M4.5 11.5h7v-7h-7v7zm8-8v9h-9v-9h9z" fill="#2A3052" fill-rule="nonzero"/><path fill="#2A3052" d="M2.041 9.5h-.825V6.873l-.81.237v-.625l1.56-.54h.075zM7.26 7.242h.505c.4 0 .6-.196.6-.587a.508.508 0 0 0-.143-.373c-.096-.096-.23-.145-.403-.145a.58.58 0 0 0-.37.124.378.378 0 0 0-.157.308h-1.07c0-.243.068-.46.203-.65.136-.191.323-.34.564-.446.24-.107.504-.16.792-.16.514 0 .918.117 1.212.352.294.234.441.557.441.968 0 .198-.06.386-.182.563a1.3 1.3 0 0 1-.532.43c.245.089.438.224.578.405.14.18.21.404.21.67 0 .414-.16.744-.477.991-.317.248-.734.371-1.25.371a2.05 2.05 0 0 1-.843-.172 1.32 1.32 0 0 1-.589-.48 1.246 1.246 0 0 1-.2-.696h1.076c0 .141.057.264.171.368a.605.605 0 0 0 .423.155.634.634 0 0 0 .45-.157.525.525 0 0 0 .168-.401c0-.233-.058-.398-.174-.495-.116-.098-.277-.146-.482-.146H7.26v-.797zM13.266 7.762l.217-1.817h2.078v.64h-1.409l-.08.706a.973.973 0 0 1 .23-.09c.096-.027.189-.04.28-.04.353 0 .625.105.814.314.19.209.285.502.285.88 0 .228-.051.434-.153.619a1.049 1.049 0 0 1-.428.426c-.184.1-.402.149-.652.149-.223 0-.432-.046-.628-.138a1.126 1.126 0 0 1-.459-.379.92.92 0 0 1-.163-.543h.825c.008.13.05.234.124.31a.395.395 0 0 0 .296.115c.277 0 .415-.205.415-.615 0-.38-.17-.569-.508-.569-.192 0-.335.062-.43.186l-.654-.154z"/></g></svg>
